X: 11
T: Eclipse
R: reel
M: C
L: 1/8
Z: 2011 John Chambers <jc:trillian.mit.edu>
B: William Randall eds "Twenty Four Country Dances", London 1771, p.8
K: A
a |\
A/A/A ce aecA | Bd2f G2FE |\
A/A/A ce Ba2f | geB^d e2E2 :|
|:\
e/e/e ce d/d/d Bd | cedc B2E2 |\
F/F/F dF E/E/E GB | AcEG A2A,2 :|
% - - - - - - - - - - - - - - - - - - - - - - - - -
%%begintext align
%% Foot it all 4 and Hands 4 round & Back
%% again lead down 2 Cu. up again cast off
%% set corners and Hey
%%endtext
% - - - - - - - - - - - - - - - - - - - - - - - - -
